X: 799
T: Zhen tongkuai
L: 1/8
M: 2/4
K: G
d2d B/ A/ [I:setbarnb 1]| 
d3e | 
c B d A/ B/ | 
G F E D | 
G> A B d | 
A AB2 | 
A G F E | 
D4 |]

@@@ Tune index: 9673
